x-pack/solutions/observability/plugins/apm/public/components/shared/span_icon/icons/kafka.svg

<svg width="16" height="16" viewBox="0 0 16 16" fill="none" xmlns="http://www.w3.org/2000/svg">
<path d="M10.767 8.85446C10.1445 8.85446 9.58638 9.13027 9.20419 9.5645L8.22484 8.87119C8.32881 8.58496 8.3885 8.27762 8.3885 7.95592C8.3885 7.63981 8.33088 7.33762 8.23034 7.05562L9.2075 6.36965C9.58965 6.80169 10.1463 7.076 10.767 7.076C11.9161 7.076 12.851 6.14119 12.851 4.992C12.851 3.84281 11.9161 2.908 10.767 2.908C9.618 2.908 8.68304 3.84281 8.68304 4.992C8.68304 5.19769 8.71411 5.39604 8.76988 5.58388L7.79208 6.27019C7.38361 5.76346 6.7955 5.40965 6.12542 5.30165V4.12319C7.06942 3.92492 7.78069 3.08619 7.78069 2.084C7.78069 0.934808 6.84573 0 5.69669 0C4.54765 0 3.61269 0.934808 3.61269 2.084C3.61269 3.07277 4.30554 3.90115 5.23065 4.11358V5.30735C3.96811 5.52896 3.00488 6.63081 3.00488 7.95592C3.00488 9.2875 3.97765 10.3934 5.24931 10.6075V11.868C4.31473 12.0734 3.61269 12.9069 3.61269 13.9024C3.61269 15.0516 4.54765 15.9864 5.69669 15.9864C6.84573 15.9864 7.78069 15.0516 7.78069 13.9024C7.78069 12.9069 7.07865 12.0734 6.14408 11.868V10.6074C6.78772 10.499 7.37003 10.1603 7.78254 9.6545L8.76842 10.3523C8.71369 10.5385 8.68304 10.7348 8.68304 10.9385C8.68304 12.0877 9.618 13.0225 10.767 13.0225C11.9161 13.0225 12.851 12.0877 12.851 10.9385C12.851 9.78927 11.9161 8.85446 10.767 8.85446V8.85446ZM10.767 3.98158C11.3242 3.98158 11.7774 4.43496 11.7774 4.992C11.7774 5.54904 11.3242 6.00238 10.767 6.00238C10.2098 6.00238 9.75665 5.54904 9.75665 4.992C9.75665 4.43496 10.2098 3.98158 10.767 3.98158V3.98158ZM4.68627 2.084C4.68627 1.52696 5.1395 1.07362 5.69669 1.07362C6.25388 1.07362 6.70708 1.52696 6.70708 2.084C6.70708 2.64104 6.25388 3.09438 5.69669 3.09438C5.1395 3.09438 4.68627 2.64104 4.68627 2.084ZM6.70708 13.9024C6.70708 14.4594 6.25388 14.9128 5.69669 14.9128C5.1395 14.9128 4.68627 14.4594 4.68627 13.9024C4.68627 13.3453 5.1395 12.892 5.69669 12.892C6.25388 12.892 6.70708 13.3453 6.70708 13.9024ZM5.69661 9.36508C4.9195 9.36508 4.28731 8.733 4.28731 7.95592C4.28731 7.17881 4.9195 6.54662 5.69661 6.54662C6.47369 6.54662 7.10588 7.17881 7.10588 7.95592C7.10588 8.733 6.47369 9.36508 5.69661 9.36508ZM10.767 11.9489C10.2098 11.9489 9.75665 11.4955 9.75665 10.9385C9.75665 10.3814 10.2098 9.92808 10.767 9.92808C11.3242 9.92808 11.7774 10.3814 11.7774 10.9385C11.7774 11.4955 11.3242 11.9489 10.767 11.9489Z" fill="black"/>
</svg>

<svg xmlns="http://www.w3.org/2000/svg" width="16" height="16" fill="none"><path fill="#000" d="M10.767 8.854c-.622 0-1.18.276-1.563.71l-.98-.693c.105-.286.165-.593.165-.915 0-.316-.058-.618-.159-.9l.977-.686c.383.432.94.706 1.56.706 1.15 0 2.084-.935 2.084-2.084s-.935-2.084-2.084-2.084A2.086 2.086 0 0 0 8.77 5.584l-.978.686a2.7 2.7 0 0 0-1.667-.968V4.123a2.09 2.09 0 0 0 1.656-2.039C7.78.934 6.846 0 5.697 0a2.086 2.086 0 0 0-2.084 2.084c0 .989.693 1.817 1.618 2.03v1.193a2.694 2.694 0 0 0-2.226 2.649c0 1.331.973 2.437 2.244 2.651v1.261a2.09 2.09 0 0 0-1.636 2.034c0 1.15.935 2.084 2.084 2.084a2.086 2.086 0 0 0 2.084-2.084c0-.995-.702-1.829-1.637-2.034v-1.26a2.7 2.7 0 0 0 1.639-.953l.985.697a2.086 2.086 0 0 0 1.999 2.67c1.15 0 2.084-.934 2.084-2.084s-.935-2.084-2.084-2.084m0-4.872a1.012 1.012 0 0 1 0 2.02 1.012 1.012 0 0 1 0-2.02m-6.08-1.898a1.012 1.012 0 0 1 2.02 0 1.012 1.012 0 0 1-2.02 0m2.02 11.818a1.012 1.012 0 0 1-2.02 0 1.012 1.012 0 0 1 2.02 0m-1.01-4.537a1.41 1.41 0 0 1-1.41-1.41 1.41 1.41 0 0 1 2.819 0 1.41 1.41 0 0 1-1.41 1.41m5.07 2.584a1.012 1.012 0 0 1 0-2.02 1.012 1.012 0 0 1 0 2.02"/></svg>
